src/assets/images/icon/car-outline/car-outline.svg

<svg width="24" height="24" viewBox="0 0 24 24" fill="none" xmlns="http://www.w3.org/2000/svg">
<path d="M22.5 10.6875H21.3656L18.7116 4.71656C18.6084 4.48468 18.4403 4.28768 18.2274 4.14941C18.0146 4.01113 17.7663 3.93753 17.5125 3.9375H6.4875C6.23371 3.93753 5.98537 4.01113 5.77256 4.14941C5.55975 4.28768 5.39158 4.48468 5.28844 4.71656L2.63438 10.6875H1.5C1.35082 10.6875 1.20774 10.7468 1.10225 10.8523C0.996763 10.9577 0.9375 11.1008 0.9375 11.25C0.9375 11.3992 0.996763 11.5423 1.10225 11.6477C1.20774 11.7532 1.35082 11.8125 1.5 11.8125H2.4375V19.5C2.4375 19.8481 2.57578 20.1819 2.82192 20.4281C3.06806 20.6742 3.4019 20.8125 3.75 20.8125H6C6.3481 20.8125 6.68194 20.6742 6.92808 20.4281C7.17422 20.1819 7.3125 19.8481 7.3125 19.5V17.8125H16.6875V19.5C16.6875 19.8481 16.8258 20.1819 17.0719 20.4281C17.3181 20.6742 17.6519 20.8125 18 20.8125H20.25C20.5981 20.8125 20.9319 20.6742 21.1781 20.4281C21.4242 20.1819 21.5625 19.8481 21.5625 19.5V11.8125H22.5C22.6492 11.8125 22.7923 11.7532 22.8977 11.6477C23.0032 11.5423 23.0625 11.3992 23.0625 11.25C23.0625 11.1008 23.0032 10.9577 22.8977 10.8523C22.7923 10.7468 22.6492 10.6875 22.5 10.6875ZM6.31594 5.17406C6.33065 5.14084 6.3547 5.11262 6.38516 5.09281C6.41561 5.07301 6.45117 5.06248 6.4875 5.0625H17.5125C17.5488 5.06248 17.5844 5.07301 17.6148 5.09281C17.6453 5.11262 17.6693 5.14084 17.6841 5.17406L20.1347 10.6875H3.86531L6.31594 5.17406ZM6.1875 19.5C6.1875 19.5497 6.16775 19.5974 6.13258 19.6326C6.09742 19.6677 6.04973 19.6875 6 19.6875H3.75C3.70027 19.6875 3.65258 19.6677 3.61742 19.6326C3.58225 19.5974 3.5625 19.5497 3.5625 19.5V17.8125H6.1875V19.5ZM20.25 19.6875H18C17.9503 19.6875 17.9026 19.6677 17.8674 19.6326C17.8323 19.5974 17.8125 19.5497 17.8125 19.5V17.8125H20.4375V19.5C20.4375 19.5497 20.4177 19.5974 20.3826 19.6326C20.3474 19.6677 20.2997 19.6875 20.25 19.6875ZM20.4375 16.6875H3.5625V11.8125H20.4375V16.6875ZM5.4375 14.25C5.4375 14.1008 5.49676 13.9577 5.60225 13.8523C5.70774 13.7468 5.85082 13.6875 6 13.6875H7.5C7.64918 13.6875 7.79226 13.7468 7.89775 13.8523C8.00324 13.9577 8.0625 14.1008 8.0625 14.25C8.0625 14.3992 8.00324 14.5423 7.89775 14.6477C7.79226 14.7532 7.64918 14.8125 7.5 14.8125H6C5.85082 14.8125 5.70774 14.7532 5.60225 14.6477C5.49676 14.5423 5.4375 14.3992 5.4375 14.25ZM15.9375 14.25C15.9375 14.1008 15.9968 13.9577 16.1023 13.8523C16.2077 13.7468 16.3508 13.6875 16.5 13.6875H18C18.1492 13.6875 18.2923 13.7468 18.3977 13.8523C18.5032 13.9577 18.5625 14.1008 18.5625 14.25C18.5625 14.3992 18.5032 14.5423 18.3977 14.6477C18.2923 14.7532 18.1492 14.8125 18 14.8125H16.5C16.3508 14.8125 16.2077 14.7532 16.1023 14.6477C15.9968 14.5423 15.9375 14.3992 15.9375 14.25Z" fill="#0F0F0F"/>
</svg>

<svg xmlns="http://www.w3.org/2000/svg" width="24" height="24" fill="none"><path fill="#0F0F0F" d="M22.5 10.688h-1.134l-2.654-5.971a1.312 1.312 0 0 0-1.2-.78H6.489a1.312 1.312 0 0 0-1.2.78l-2.654 5.97H1.5a.563.563 0 0 0 0 1.126h.938V19.5a1.313 1.313 0 0 0 1.312 1.313H6A1.313 1.313 0 0 0 7.313 19.5v-1.688h9.375V19.5A1.313 1.313 0 0 0 18 20.813h2.25a1.313 1.313 0 0 0 1.313-1.313v-7.688h.937a.562.562 0 1 0 0-1.124ZM6.316 5.173a.187.187 0 0 1 .171-.112h11.025a.187.187 0 0 1 .172.112l2.45 5.513H3.866l2.45-5.513ZM6.188 19.5a.188.188 0 0 1-.188.188H3.75a.188.188 0 0 1-.188-.188v-1.688h2.626V19.5Zm14.062.188H18a.188.188 0 0 1-.188-.188v-1.688h2.625V19.5a.188.188 0 0 1-.187.188Zm.188-3H3.563v-4.875h16.875v4.874Zm-15-2.438A.562.562 0 0 1 6 13.687h1.5a.563.563 0 0 1 0 1.126H6a.563.563 0 0 1-.563-.563Zm10.5 0a.562.562 0 0 1 .562-.563H18a.562.562 0 1 1 0 1.126h-1.5a.562.562 0 0 1-.563-.563Z"/></svg>
